X: 17152
T: Hempsylph
R: reel
M: 4/4
K: Adorian
|:ae e2 AB (3cBA|BGGD DGGB|(3cBA dB cAce|
ae e2 AB (3cBA|BGGD DGGB|(3cBA AG A2 Ac:|
|:g2 gf (3gfe ed|B2 BcBG GD|DGGB (3cBA dB|cAce
g2 gf|(3gfe ec B2Bc|BGGE EGGB|(3cBA AG A2 Ac:|

